F[ERK1
CUT[AUF AUF IHR KRIEGER]
REG[Europa, Mitteleuropa, Oesterreich]
KEY[E0345  08 Eb 4/4]
MEL[5_  +1_.55432  1_1_1_0
    3  257+2+1_.4#  5__0_
    54  3_3_3_.5  54434_.
    3  322_2_.4  43323_
    5_  +1_.54321  5__
    7__  +1_.65432  1__0_ //] >>
FCT[historisches Lied, Krieg (1809)]
